X: 1
T: Li'l Liza Jane
C: Countess Ada DeLachau(1916)
M: 4/4
L: 1/4
F:https://www.youtube.com/watch?v=ajAsxMbTclk
Q:180
K: C
"C" E C/2C/2 D C | E CD2|GG2E|G4|
w: I've got a gal an' you got none Li'l Liz-a Jane, 
"C" E C/2C/2 D C | E CD2|"G7"EE2D|"C"C3z|
w: I'se got a gal an' you got none Li'l Liza Jane.
"C" c3-G|"F"A2"C"G2|GG2E|G2z2|
w: Ohe_ Liz-a Li'l Liza Jane.
"C" c3-G|"F"A2"C"G2|"G7"EE2D|"C"C3z|
w: Ohe_ Liz-a Li'l Liza Jane.